src/svg/uf1de-sliders.svg

<!-- Generated by IcoMoon.io -->
<svg version="1.1" xmlns="http://www.w3.org/2000/svg" width="27" height="32" viewBox="0 0 27 32">
<path d="M6.286 25.143v2.286h-6.286v-2.286h6.286zM12.571 22.857c0.625 0 1.143 0.518 1.143 1.143v4.571c0 0.625-0.518 1.143-1.143 1.143h-4.571c-0.625 0-1.143-0.518-1.143-1.143v-4.571c0-0.625 0.518-1.143 1.143-1.143h4.571zM15.429 16v2.286h-15.429v-2.286h15.429zM4 6.857v2.286h-4v-2.286h4zM27.429 25.143v2.286h-13.143v-2.286h13.143zM10.286 4.571c0.625 0 1.143 0.518 1.143 1.143v4.571c0 0.625-0.518 1.143-1.143 1.143h-4.571c-0.625 0-1.143-0.518-1.143-1.143v-4.571c0-0.625 0.518-1.143 1.143-1.143h4.571zM21.714 13.714c0.625 0 1.143 0.518 1.143 1.143v4.571c0 0.625-0.518 1.143-1.143 1.143h-4.571c-0.625 0-1.143-0.518-1.143-1.143v-4.571c0-0.625 0.518-1.143 1.143-1.143h4.571zM27.429 16v2.286h-4v-2.286h4zM27.429 6.857v2.286h-15.429v-2.286h15.429z"></path>
</svg>

<svg xmlns="http://www.w3.org/2000/svg" width="27" height="32"><path d="M6.286 25.143v2.286H0v-2.286h6.286zm6.285-2.286c.625 0 1.143.518 1.143 1.143v4.571c0 .625-.518 1.143-1.143 1.143H8a1.151 1.151 0 0 1-1.143-1.143V24c0-.625.518-1.143 1.143-1.143h4.571zM15.429 16v2.286H0V16h15.429zM4 6.857v2.286H0V6.857h4zm23.429 18.286v2.286H14.286v-2.286h13.143zM10.286 4.571c.625 0 1.143.518 1.143 1.143v4.571c0 .625-.518 1.143-1.143 1.143H5.715a1.151 1.151 0 0 1-1.143-1.143V5.714c0-.625.518-1.143 1.143-1.143h4.571zm11.428 9.143c.625 0 1.143.518 1.143 1.143v4.571c0 .625-.518 1.143-1.143 1.143h-4.571A1.151 1.151 0 0 1 16 19.428v-4.571c0-.625.518-1.143 1.143-1.143h4.571zM27.429 16v2.286h-4V16h4zm0-9.143v2.286H12V6.857h15.429z"/></svg>
